X:1967
T:Fiou de Lono (version Esbelin)
O:england
D:D. Denécheau
M:3/8
L:1/8
K:C
fdf|ed2|d/e/fe/f/|g>ag|\
fdf|ed2|d/e/fe/f/|g3:|
|:fdf|ed2|dcB|cB/c/d/e/|\
fdf|ed2|dcB|c3:|


